li/weather-tornado.svg

<svg role="img" focusable="false" aria-hidden="true" xmlns="http://www.w3.org/2000/svg" viewBox="0 0 14 14" height="1em" width="1em">
  <path d="m 1.215329,7.475853 c 0,0.366859 0.1914045,0.680549 0.5742136,0.941072 0.7018165,0.494462 1.7598582,0.739034 3.1794417,0.739034 0.6380151,0 1.228179,-0.05317 1.7758086,-0.16482 C 7.319006,8.868852 7.792201,8.672131 8.153743,8.406292 8.515285,8.140452 8.701372,7.832078 8.701372,7.470536 c 0,-0.111653 -0.02127,-0.217988 -0.0638,-0.329641 0.739034,-0.180771 1.318564,-0.425343 1.738591,-0.733717 0.420027,-0.308374 0.632698,-0.664599 0.632698,-1.063359 0,-0.101019 -0.01595,-0.207355 -0.04785,-0.319007 1.217546,-0.43066 1.82366,-1.010191 1.82366,-1.743908 0,-0.467878 -0.26584,-0.882588 -0.792202,-1.24413 C 10.955692,1.345591 9.43509,1 7.430659,1 6.4842701,1 5.6282665,1.08507 4.8626485,1.249889 4.0279121,1.420027 3.3579963,1.685866 2.8475842,2.047408 2.3371722,2.40895 2.0819661,2.82366 2.0819661,3.286221 c 0,0.276473 0.085069,0.526362 0.2552061,0.754984 -0.6273815,0.356225 -0.9410723,0.792202 -0.9410723,1.307931 0,0.398759 0.1967213,0.749668 0.5848472,1.052725 C 1.470535,6.699601 1.215329,7.055826 1.215329,7.475853 Z m 0.3190075,2.392556 c 0,0.388126 0.2392557,0.6965 0.717767,0.914489 0.4785113,0.217988 1.0846256,0.329641 1.8130261,0.329641 0.7390341,0 1.3451484,-0.111653 1.8289765,-0.329641 0.4838281,-0.217989 0.7230838,-0.526363 0.7230838,-0.914489 0,-0.143553 -0.047851,-0.265839 -0.1382366,-0.366858 -0.090386,-0.101019 -0.2126717,-0.14887 -0.3562251,-0.14887 -0.1169694,0 -0.2233053,0.04253 -0.3190075,0.122286 -0.095702,0.07975 -0.154187,0.186087 -0.180771,0.303057 -0.1063358,0.08507 -0.2977403,0.159504 -0.5848471,0.228622 -0.2871068,0.06912 -0.6114311,0.106336 -0.972973,0.106336 -0.5848471,0 -1.0633584,-0.08507 -1.4249003,-0.249889 C 2.7252983,9.778023 2.7678323,9.671688 2.7784659,9.544085 2.7890999,9.416482 2.7571989,9.304829 2.6987139,9.214444 2.6136449,9.102791 2.5073094,9.028356 2.3743896,9.001772 c -0.1329198,-0.02658 -0.255206,0 -0.3721755,0.06912 C 1.6885234,9.28888 1.5343364,9.549403 1.5343364,9.86841 Z M 2.2148859,7.475853 c 0,-0.0053 0.031901,-0.03722 0.1010191,-0.0957 C 2.363756,7.332303 2.4647752,7.273817 2.6136453,7.199382 2.7625155,7.124942 2.9379697,7.066462 3.1240574,7.013294 l 0.063802,-0.0319 c 0.8613203,0.287107 1.8661941,0.43066 3.0146212,0.43066 0.5050952,0 0.9623394,-0.02658 1.3717324,-0.08507 L 7.71245,7.44927 C 7.6646,7.53434 7.552946,7.619407 7.377492,7.71511 7.16482,7.826762 6.8351789,7.933098 6.3885683,8.018167 c -0.4466105,0.08507 -0.919805,0.13292 -1.4195835,0.13292 -0.4997785,0 -0.972973,-0.04254 -1.4195835,-0.13292 C 3.1027902,7.92778 2.7678323,7.826761 2.5498438,7.715109 2.3690729,7.640673 2.2574203,7.560922 2.2148859,7.475853 Z m 0.058485,4.476739 c 0,0.334958 0.1914046,0.595481 0.5742136,0.776252 C 3.2303935,12.909615 3.7035881,13 4.267168,13 c 0.5742136,0 1.0580417,-0.09038 1.4461675,-0.271156 0.3881258,-0.180771 0.5848471,-0.441294 0.5848471,-0.776252 0,-0.13292 -0.047851,-0.255206 -0.1488701,-0.356225 C 6.0482931,11.495348 5.9313237,11.44218 5.7984039,11.44218 c -0.2498893,0 -0.4147098,0.127603 -0.4891449,0.382809 -0.2073549,0.127603 -0.5529464,0.196721 -1.0420913,0.196721 -0.4253434,0 -0.7656181,-0.0638 -1.0208241,-0.196721 C 3.1665917,11.569783 3.007088,11.44218 2.7571987,11.44218 c -0.1329198,0 -0.2498892,0.04785 -0.3402747,0.14887 -0.090385,0.101019 -0.1435534,0.217989 -0.1435534,0.361542 z M 2.3850236,5.349136 c 0,-0.04253 0.026584,-0.09039 0.079752,-0.14887 0.127603,-0.159504 0.382809,-0.319008 0.7549845,-0.467878 1.0208241,0.54763 2.4244572,0.818786 4.2055819,0.818786 0.909172,0 1.765175,-0.08507 2.562694,-0.249889 l 0,0.04785 c 0,0.07975 -0.04785,0.159504 -0.14887,0.239256 C 9.621177,5.779795 9.217101,5.960566 8.621621,6.13602 7.978289,6.327425 7.170136,6.423127 6.1971637,6.423127 5.2188739,6.423127 4.4107215,6.327427 3.7673897,6.13602 3.1506414,5.965884 2.7412484,5.785113 2.5338935,5.593708 2.4328744,5.513957 2.3850233,5.434205 2.3850233,5.349136 Z m 0.691183,-2.062915 c 0,-0.0957 0.063801,-0.196722 0.1860877,-0.313691 C 3.5015499,2.749225 3.9800612,2.536553 4.6871946,2.329198 5.4474959,2.105893 6.3566674,1.99424 7.420025,1.99424 c 1.068676,0 1.988481,0.111653 2.759416,0.334958 0.717767,0.207355 1.190961,0.425343 1.4249,0.648649 0.116969,0.116969 0.180771,0.223305 0.180771,0.31369 0,0.09039 -0.05848,0.186088 -0.180771,0.297741 -0.233939,0.223305 -0.707133,0.441294 -1.4249,0.653965 C 9.408506,4.466549 8.494018,4.578201 7.420025,4.578201 6.3566674,4.578201 5.4421791,4.466549 4.6871946,4.243243 3.9747442,4.030572 3.4962329,3.812583 3.262294,3.583961 3.1400078,3.472308 3.0762063,3.376606 3.0762063,3.286221 Z"/>
</svg>

<svg aria-hidden="true" xmlns="http://www.w3.org/2000/svg" viewBox="0 0 14 14" height="1em" width="1em">
  <path d="M1.215 7.476c0 .367.192.68.575.94.701.495 1.76.74 3.179.74.638 0 1.228-.053 1.776-.165.574-.122 1.047-.319 1.409-.585.361-.266.547-.574.547-.935a.907.907 0 0 0-.063-.33c.739-.18 1.318-.425 1.738-.734.42-.308.633-.664.633-1.063 0-.101-.016-.208-.048-.32 1.218-.43 1.824-1.01 1.824-1.743 0-.468-.266-.883-.793-1.244C10.956 1.346 9.435 1 7.431 1c-.947 0-1.803.085-2.568.25-.835.17-1.505.436-2.015.797-.51.362-.766.777-.766 1.24 0 .276.085.526.255.754-.627.356-.94.792-.94 1.308 0 .399.196.75.584 1.053-.51.298-.766.654-.766 1.074Zm.32 2.392c0 .389.239.697.717.915.479.218 1.085.33 1.813.33.74 0 1.345-.112 1.83-.33.483-.218.722-.526.722-.915a.533.533 0 0 0-.138-.366.458.458 0 0 0-.356-.15.49.49 0 0 0-.32.123.544.544 0 0 0-.18.303c-.106.085-.298.16-.585.229s-.611.106-.973.106c-.585 0-1.063-.085-1.425-.25a.489.489 0 0 0 .138-.319.518.518 0 0 0-.08-.33.51.51 0 0 0-.696-.144c-.313.219-.468.48-.468.798Zm.68-2.392c0-.005.032-.037.1-.096.049-.048.15-.106.299-.18.149-.075.324-.134.51-.187l.064-.032c.861.288 1.866.431 3.014.431a9.78 9.78 0 0 0 1.372-.085l.138.122c-.047.085-.16.17-.335.266-.212.112-.542.218-.988.303a7.57 7.57 0 0 1-1.42.133c-.5 0-.973-.042-1.42-.133-.446-.09-.781-.191-1-.303-.18-.074-.292-.154-.334-.24Zm.058 4.477c0 .335.192.595.575.776.382.18.856.271 1.42.271.573 0 1.057-.09 1.445-.271.388-.18.585-.441.585-.776a.49.49 0 0 0-.149-.357.485.485 0 0 0-.35-.154c-.25 0-.415.128-.49.383-.207.128-.553.197-1.042.197-.425 0-.765-.064-1.02-.197-.08-.255-.24-.383-.49-.383a.44.44 0 0 0-.34.15.525.525 0 0 0-.144.36zm.112-6.604c0-.042.027-.09.08-.149.127-.16.383-.319.755-.468 1.02.548 2.424.82 4.205.82.91 0 1.766-.086 2.563-.25v.047c0 .08-.048.16-.149.24-.218.19-.622.372-1.217.547-.644.191-1.452.287-2.425.287-.978 0-1.786-.096-2.43-.287-.616-.17-1.026-.35-1.233-.542-.101-.08-.149-.16-.149-.245Zm.691-2.063c0-.095.064-.197.186-.313.24-.224.718-.436 1.425-.644.76-.223 1.67-.335 2.733-.335 1.069 0 1.989.112 2.76.335.717.208 1.19.426 1.424.649.117.117.181.223.181.314 0 .09-.058.186-.18.297-.235.224-.708.442-1.426.654-.77.224-1.685.335-2.759.335-1.063 0-1.978-.111-2.733-.335-.712-.212-1.19-.43-1.425-.659-.122-.112-.186-.207-.186-.298Z"/>
</svg>
